X: 424
T: Pengyuo yaowei yixin ren
L: 1/8
M: 2/4
K: Bb
c'> c' c' c' [I:setbarnb 1]| 
f'c'2b | 
g2b d | 
c4 | 
c'> c' c' c' | 
f'c'2b | 
g2b g | 
f4 |]

@@@ Tune index: 9298
